X: 16569
T: Hamish The Carpenter
R: reel
M: 4/4
K: Adorian
A2 GE GABd|e2 dB de g2|A2 GE GABd|(3efg dB A3G|
EAAE GABd|e2 dB dega|geed GABd|(3efg dB A3B||
eaag a2 ge|g3a ge d2|eaag aega|dBgB A3G|
eaag a2 ge|g3a ge d2|eaag e3g|dBgB A2 AG||

